project_02/img/icondev/security-audit.svg

<svg xmlns="http://www.w3.org/2000/svg" width="36" height="36" viewBox="0 0 36 36">
    <g fill="none" fill-rule="evenodd" stroke="#33CAC0" stroke-linejoin="round" stroke-width="1.4">
        <path d="M10.5 30.75L.75 30.75.75.75 35.25.75 35.25 30.75 25.5 30.75M.75 5.25L35.25 5.25M3 3L4.5 3M6 3L7.5 3M9 3L10.5 3"/>
        <path d="M24 34.5c0 .415-.335.75-.75.75h-10.5c-.415 0-.75-.335-.75-.75V27c0-.415.335-.75.75-.75h10.5c.415 0 .75.335.75.75v7.5zM14.25 22.5c0-2.072 1.678-3.75 3.75-3.75s3.75 1.678 3.75 3.75v3.75h-7.5V22.5zM4.5 16.5L12 16.5 12 9 4.5 9zM15.75 12L31.5 12M15.75 9L31.5 9M15.75 15L26.25 15"/>
    </g>
</svg>

<svg width="36" height="36" viewBox="0 0 36 36" fill="none" xmlns="http://www.w3.org/2000/svg">
<path d="M10.5 30.75H0.75V0.75H35.25V30.75H25.5M0.75 5.25H35.25M3 3H4.5M6 3H7.5M9 3H10.5" stroke="#2998FF" stroke-width="1.4" stroke-linejoin="round"/>
<path d="M15.75 12H31.5M15.75 9H31.5M15.75 15H26.25M24 34.5C24 34.915 23.665 35.25 23.25 35.25H12.75C12.335 35.25 12 34.915 12 34.5V27C12 26.585 12.335 26.25 12.75 26.25H23.25C23.665 26.25 24 26.585 24 27V34.5ZM14.25 22.5C14.25 20.428 15.928 18.75 18 18.75C20.072 18.75 21.75 20.428 21.75 22.5V26.25H14.25V22.5ZM4.5 16.5H12V9H4.5V16.5Z" stroke="#2998FF" stroke-width="1.4" stroke-linejoin="round"/>
</svg>
